!!!!SEGMENT: pl-kk--kk-i-6--027-002_anonim--officium-octavi-toni-et-in-terra.krn
!!!id: 16xx:995
!!!COM: Anonim
!!!COM-rism: pe30004985
!!!CDT:
!!!CNT:
!!!OTL: Officium Octavi Toni – Et in terra
!!!PDT:
!!!SMS-siglum: PL-Kk
!!!SMS-shelfmark: Kk.I.6
!!!NIFC-rismID: 1001136049
!!!URL-scan: http://repozytorium.nifc.pl/skany/pl-kk-nut--i-6
!!!ONB-nifc: UWAGA: C (skan 0033-0034, s. 63-65), T (skan 0136-0137, s. 67-69), B (skan 0247-0248, s. 76-78) Części Officium: 1. Kyrie, 2. Et in terra, 3. Patrem, 4. Sanctus, 5. Agnus Dei
!!!SMS-variant:
!!!SMS-altvar:
**kern	**text	**kern	**text	**kern	**text
*part3	*part3	*part2	*part2	*part1	*part1
*staff3	*staff3	*staff2	*staff2	*staff1	*staff1
*I"Baſsus.	*	*I"Tenor.	*	*I"Cantus.	*
*I'B	*	*I'T	*	*I'S	*
*clefF3	*	*clefC3	*	*clefC4	*
*k[]	*	*k[]	*	*k[]	*
*M2/1	*	*M2/1	*	*M2/1	*
*met(C|)	*	*met(C|)	*	*met(C|)	*
=1-	=1-	=1-	=1-	=1-	=1-
1rF	.	00r	.	1G	ET
1C	ET	.	.	2G/	in
.	.	.	.	1c\	ter-
=2-	=2-	=2-	=2-	=2-	=2-
2C/	in	.	.	.	.
!	!	!	!	!LO:TX:t=P:problem:kreska pseudotaktowa	!
1F	ter-	.	.	2c\	-ra
.	.	.	.	2A/	pax
!	!	!	!	!LO:TX:t=P:problem:kreska pseudotaktowa	!
2F/	-ra	.	.	2A/	ho-
=3-	=3-	=3-	=3-	=3-	=3-
2D/	pax	1rc	.	2.d\	-mi-
2D/	ho-	.	.	.	.
.	.	.	.	4d\	-ni-
!	!	!	!	!LO:TX:t=P:problem:kreska pseudotaktowa	!
2.G\	-mi-	1G	ET	1B	-bus
4G\	-ni-	.	.	.	.
=4-	=4-	=4-	=4-	=4-	=4-
1E	-bus	2G/	in	1G	Bo-
.	.	1c	ter-	.	.
*lig	*	*	*	*	*
1C	bo-	.	.	2G/	-nae
!	!	!	!	!LO:TX:t=P:problem:kreska pseudotaktowa:między nutą a kropką	!
.	.	2c/	-ra	2.c\	vo-
=5-	=5-	=5-	=5-	=5-	=5-
1F	.	2A/	pax	.	.
.	.	.	.	4B\	.
.	.	2A/	ho-	4A/	.
!	!	!	!	!LO:TX:t=P:problem:kreska pseudotaktowa	!
.	.	.	.	4G/	.
*Xlig	*	*	*	*	*
!	!	!	!	!LO:SIC:v:t=custos B	!
2D/	-nae	2.d\	-mi-	2A/	-lun-
!	!	!	!	!LO:LB:g=original	!
2.G\	Vo-	.	.	2.B\	-ta-
.	.	4d\	-ni-	.	.
=6-	=6-	=6-	=6-	=6-	=6-
.	.	2B/	-bus	.	.
4F/	.	.	.	4A/	.
4E/	.	1G	bo-	1B	.
!LO:SIC:v:t=custos  E	!	!	!	!	!
4D/	.	.	.	.	.
!LO:LB:g=original	!	!	!	!	!
2E/	.	.	.	.	.
!	!	!	!	!LO:TX:t=P:problem:kreska pseudotaktowa	!
2C/	-lun-	2G/	-nae	2c\	.
=7-	=7-	=7-	=7-	=7-	=7-
1D	-ta-	2d\	Vo-	1A	.
.	.	2d\	-lun-	.	.
!	!	!LO:SIC:v:t=custos c	!	!	!
2G,\	-tis	1B	-ta-	2G,/	-tis
!	!	!	!	!LO:TX:t=P:problem:kreska pseudotaktowa	!
2G\	Lau-	.	.	2d\	Lau-
!	!	!LO:LB:g=original	!	!	!
=8-	=8-	=8-	=8-	=8-	=8-
4C/	-da-	2c/	-tis	2e\	-da-
4D/	.	.	.	.	.
4E/	.	2c/	lau-	2e\	-mus
4F/	.	.	.	.	.
2G\	.	2B/	-da-	2d\	te
!	!	!	!	!LO:TX:t=P:problem:kreska pseudotaktowa	!
2E/	-mus	2c/	-mus	2G/	Be-
=9-	=9-	=9-	=9-	=9-	=9-
1D	te	1d	te	1A	-ne-
2rD	.	2r	.	2G/	-di-
2C/	Be-	2e\	Be-	1c\	-ci-
=10-	=10-	=10-	=10-	=10-	=10-
2G\	-ne-	2d\	-ne-	.	.
2G\	-di-	1e	-di-	2B\	-mus
!	!	!	!	!LO:TX:t=P:problem:kreska pseudotaktowa	!
2A\	-ci-	.	.	1c	te
2A\	-mus	2c/	-ci-	.	.
=11-	=11-	=11-	=11-	=11-	=11-
1G	te	1d	-mus	2r	.
.	.	.	.	1G	A-
2rD	.	2c/	te	.	.
!	!	!	!	!LO:TX:t=P:problem:kreska pseudotaktowa	!
1C/	A-	1e\	A-	2G/	-do-
=12-	=12-	=12-	=12-	=12-	=12-
.	.	.	.	1c	-ra-
!LO:SIC:v:t=custos F	!	!	!	!	!
2C/	-do-	2e\	-do-	.	.
!LO:LB:g=original	!	!	!	!	!
1F	-ra-	4c/	-ra-	1A	-mus
.	.	4B/	.	.	.
.	.	4A/	.	.	.
.	.	4G/	.	.	.
=13-	=13-	=13-	=13-	=13-	=13-
!	!	!	!	!LO:SIC:v:t=custos  B	!
1D	-mus	2A/	-mus	1d	te
.	.	2B/	te	.	.
!	!	!	!	!LO:LB:g=original	!
2G,\	te	2c/	.	2r	.
!	!	!LO:SIC:v:t=custos e	!	!	!
2G\	glo-	2d\	glo-	2B\	glo-
!	!	!LO:PB:g=original	!	!	!
=14-	=14-	=14-	=14-	=14-	=14-
2E/	-ri-	2e\	-ri-	2c\	-ri-
!	!	!	!	!LO:TX:t=P:problem:kreska pseudotaktowa	!
2F/	-fi-	2c/	-fi-	2A/	-fi-
2D/	-ca-	2d\	-ca-	2A/	-ca-
2D/	-mus	2d\	-mus	2B\	-mus
=15-	=15-	=15-	=15-	=15-	=15-
!	!	!	!	!LO:TX:t=P:problem:kreska pseudotaktowa	!
1C	te	1G	te	1c,	te
1.F	Gra-	1.A	Gra-	1c	Gra-
=16-	=16-	=16-	=16-	=16-	=16-
.	.	.	.	2c\	-ti-
!	!	!	!	!LO:TX:t=P:problem:kreska pseudotaktowa	!
2F/	-ti-	2A/	-ti-	2c\	-as
1D	-as	2A/	-as	2.d\	a-
.	.	2.d\	a-	.	.
.	.	.	.	4c\	.
=17-	=17-	=17-	=17-	=17-	=17-
1.G	a-	.	.	4B\	.
.	.	4c/	.	4A/	.
!	!	!	!	!LO:TX:t=P:problem:kreska pseudotaktowa	!
.	.	4B/	.	2B\	-gi-
.	.	4A/	.	.	.
.	.	2B/	.	2G/	-mus
2F/	-gi-	2A/	.	2.A/	ti-
=18-	=18-	=18-	=18-	=18-	=18-
1E	-mus	2B/	gi-	.	.
.	.	.	.	4G/	.
.	.	1c	-mus	1G	.
1D	ti-	.	.	.	.
!	!	!	!	!LO:TX:t=P:problem:kreska pseudotaktowa	!
.	.	2B/	ti-	2F/	.
=19-	=19-	=19-	=19-	=19-	=19-
0C	-bi	2c/	-bi	2G,/	-bi
.	.	1e	pro-	1c	pro-
!	!	!LO:SIC:v:t=custos f	!	!LO:SIC:v:t=custos F	!
.	.	2e\	-pter	2c\	-pter
!	!	!LO:LB:g=original	!	!LO:LB:g=original	!
=20-	=20-	=20-	=20-	=20-	=20-
!LO:SIC:v:t=custos C	!	!	!	!	!
00r	.	1f	mag-	1F	mag-
.	.	2d\	-nam	2G/	-nam
.	.	2e\	glo-	2c\	glo-
=21-	=21-	=21-	=21-	=21-	=21-
.	.	2d\	-ri-	2B-X\	-ri-
!	!	!	!	!LO:TX:t=P:problem:kreska pseudotaktowa	!
.	.	2.c/	-am	2c\	-am
.	.	.	.	1G	tu-
.	.	8B/L	.	.	.
.	.	8A/J	.	.	.
.	.	2B/	tu-	.	.
=22-	=22-	=22-	=22-	=22-	=22-
2rD	.	2c/	-am	2C/	-am
2.C/	Do-	2.e\	Do-	1c	Do-
4C/	-mi-	4e\	-mi-	.	.
!	!	!	!	!LO:TX:t=P:problem:kreska pseudotaktowa	!
2C/	-ne	2e\	-ne	2c\	-mi-
=23-	=23-	=23-	=23-	=23-	=23-
2F/	De-	2f\	De-	1c	-ne
2C/	-us	2e\	-us	.	.
2D/	Rex	2d\	Rex	2A/	De-
2E/	Cae-	1c\	Cae-	2G/	-us
=24-	=24-	=24-	=24-	=24-	=24-
2F/	-le-	.	.	2A/	Rex
2G\	.	2B/	-le-	1G	Cae-
1C,	-ſtis	2c,/	-ſtis	.	.
.	.	2c/	De-	(1c\	-le-
=25-	=25-	=25-	=25-	=25-	=25-
1G	De-	2d\	-us	.	.
!	!	!	!	!LO:TX:t=P:problem:kreska pseudotaktowa	!
.	.	1e	Pa-	2Bny\)	.
1A	-us	.	.	2c\	-ſtis
!	!	!	!	!LO:SIC:v:t=custos A	!
.	.	1c\	-ter	2c\	De-
!	!	!	!	!LO:PB:g=original	!
=26-	=26-	=26-	=26-	=26-	=26-
1F	Pa-	.	.	2A/	-us
!	!	!LO:SIC:v:t=custos d	!	!	!
.	.	2d\	O-	2A/	Pa-
!	!	!LO:LB:g=original	!	!	!
2G\	-ter	2d\	-mni	2B\	-ter
!	!	!	!	!LO:TX:t=P:problem:kreska pseudotaktowa	!
2C/	O-	2e\	po-	2c\	Om-
=27-	=27-	=27-	=27-	=27-	=27-
2D/	-mni-	1.d	-tens	2.A/	-ni-
2D/	-po-	.	.	.	.
.	.	.	.	4A/	-po-
!	!	!	!	!LO:TX:t=P:problem:kreska pseudotaktowa	!
0.G	-tens	.	.	1G	-tens
.	.	2.d\	D(o-	.	.
=28-	=28-	=28-	=28-	=28-	=28-
.	.	.	.	2r	.
.	.	4d\	-mi)-	.	.
.	.	2d\	-ne	2.d\	Do-
.	.	2B/	fi-	.	.
.	.	.	.	4d\	-mi-
!	!	!	!	!LO:TX:t=P:problem:kreska pseudotaktowa	!
.	.	2G/	-li	2d\	-ne
!LO:PB:g=original	!	!	!	!	!
=29-	=29-	=29-	=29-	=29-	=29-
2r	.	1.d	V-	2B\	fi-
!	!	!	!	!LO:TX:t=P:problem:kreska pseudotaktowa	!
2.G\	Do-	.	.	2G/	-li
.	.	.	.	2.B\	V-
4G\	-mi-	.	.	.	.
2G\	-ne	2d\	-ni-	.	.
.	.	.	.	4A/	.
=30-	=30-	=30-	=30-	=30-	=30-
2E/	fi-	2.e\	-ge-	2B\	.
!	!	!	!	!LO:TX:t=P:problem:kreska pseudotaktowa	!
1C	-li	.	.	2c\	.
.	.	4d\	.	.	.
.	.	4c/	.	2G/	.
.	.	4B/	.	.	.
1F\	V-	2.A/	.	1A\	.
=31-	=31-	=31-	=31-	=31-	=31-
.	.	.	.	.	.
.	.	4B/	.	.	.
!	!	!	!	!LO:SIC:v:t=custos F	!
2E/	-ni-	1c	.	2G/	-ni-
!	!	!	!	!LO:LB:g=original	!
2D/	-ge-	.	.	2F/	-ge-
2D/	-ni-	2B/	-ni-	2F/	-ni-
=32-	=32-	=32-	=32-	=32-	=32-
!	!	!LO:SIC:v:t=custos c	!	!LO:TX:t=P:problem:kreska pseudotaktowa	!
1C	-te	1c	-te	1G	-te
!	!	!LO:LB:g=original	!	!	!
0F	Je-	0c	Je-	0A	Je-
=33-	=33-	=33-	=33-	=33-	=33-
.	.	.	.	.	.
1D	-ſu	1d	-ſu	1A	-ſu
=34-	=34-	=34-	=34-	=34-	=34-
0E	Chri-	1.B	Chri-	0G	Chri-
.	.	2c/	.	.	.
=35-	=35-	=35-	=35-	=35-	=35-
2D/	-ſte	2d\	-ſte	2A/	-ſte
1D	Je-	1d	Je-	2.A/	Je-
.	.	.	.	4B\	.
!	!	!	!	!LO:TX:t=P:problem:kreska pseudotaktowa:między nutą a kropką	!
2C/	-ſu	2G/	-ſu	2.c\	.
=36-	=36-	=36-	=36-	=36-	=36-
1F	Chri-	1A	Chriſ-	.	.
.	.	.	.	4B\	.
!	!	!	!	!LO:TX:t=P:problem:kreska pseudotaktowa	!
.	.	.	.	2A/	.
1E	-ſte	2B/	-te	2G/	-ſu
!	!	!	!	!LO:TX:t=P:problem:kreska pseudotaktowa:między nutą a kropką	!
.	.	2G/	D(o-	2.B\	Chri-
=37-	=37-	=37-	=37-	=37-	=37-
2rD	.	2G/	-mi)-	.	.
.	.	.	.	8A\L	.
.	.	.	.	8B\J	.
!LO:SIC:v:t=custos C	!	!	!	!LO:TX:t=P:problem:kreska pseudotaktowa	!
2C/	Do-	2G/	-ne	2c\	.
!LO:LB:g=original	!	!	!	!	!
2C/	-mi-	1c	De-	1G	-ſte
2C/	-ne	.	.	.	.
=38-	=38-	=38-	=38-	=38-	=38-
1F	De-	1A	-us	0r	.
1D	-us	2.d\	A-	.	.
.	.	4c/	.	.	.
=39-	=39-	=39-	=39-	=39-	=39-
2.G\	A-	4B/	.	2r	.
.	.	4A/	.	.	.
!	!	!LO:SIC:v:t=custos G	!	!LO:SIC:v:t=custos G	!
.	.	1B	.	2G/	Do-
4F\	.	.	.	.	.
!	!	!	!	!LO:LB:g=original	!
4E/	.	.	.	2G/	-mi-
4D/	.	.	.	.	.
!	!	!LO:LB:g=original	!	!LO:TX:t=P:problem:kreska pseudotaktowa	!
2E/	.	1G/	-gnus	2G/	-ne
=40-	=40-	=40-	=40-	=40-	=40-
1C	-gnus	.	.	1c	de-
.	.	2.c/	De-	.	.
2.F/	De-	.	.	1A	-us
.	.	4B/	.	.	.
.	.	4A/	.	.	.
4E/	.	4G/	.	.	.
=41-	=41-	=41-	=41-	=41-	=41-
1D	.	1F	.	2.d\	A-
!	!	!	!	!LO:TX:t=P:problem:kreska pseudotaktowa	!
.	.	.	.	4c\	.
2E/	-i	1G	-i	4B\	.
.	.	.	.	4A/	.
2.G\	fi-	.	.	1B\	.
=42-	=42-	=42-	=42-	=42-	=42-
.	.	1rc	.	.	.
4G\	-li-	.	.	.	.
!	!	!	!	!LO:TX:t=P:problem:kreska pseudotaktowa	!
2C/	-us	.	.	2c\	-gnus
1D	Pa-	2.d\	fi-	1A	De-
.	.	4d\	-li-	.	.
=43-	=43-	=43-	=43-	=43-	=43-
1G	-tris	2B/	-us	2G/	-i
.	.	2.d\	Pa-	2G/	fi-
0rD	.	.	.	2F/	-li-
.	.	4c\	.	.	.
!	!	!	!	!LO:TX:t=P:problem:kreska pseudotaktowa	!
.	.	1c\	.	2A/	-us
=44-	=44-	=44-	=44-	=44-	=44-
.	.	.	.	1G	Pa-
.	.	2B/	.	.	.
2rD	.	2c,/	-tris	2C/	-tris
*	*ij	*	*ij	*	*
1C/	fi-	1e\	fi-	1c\	Fi-
=45-	=45-	=45-	=45-	=45-	=45-
.	.	.	-li-	.	.
2C/	-li-	2e\	-li-	2c\	-li-
!	!	!	!	!LO:TX:t=P:problem:kreska pseudotaktowa	!
1E	-us	2B/	-us	1G	-us
.	.	1c\	Pa-	.	.
=46-	=46-	=46-	=46-	=46-	=46-
*	*	*	*	*lig	*
0D	Pa-	.	.	1A	Pa-
.	.	4B/	.	.	.
.	.	4A/	.	.	.
.	.	1B	.	1F	.
*	*	*	*	*Xlig	*
=47-	=47-	=47-	=47-	=47-	=47-
0Cl;;	-tris	0cl;;	-tris	0Gl;;	-tris.
*	*Xij	*	*Xij	*	*
!LO:LB:g=original	!	!LO:LB:g=original	!	!LO:LB:g=original	!
=48||	=48||	=48||	=48||	=48||	=48||
*M2/1	*	*M2/1	*	*M2/1	*
*met(C|)	*	*met(C|)	*	*met(C|)	*
1rF	.	00r	.	1G	Qui
1C	Qui	.	.	1c	tol-
=49-	=49-	=49-	=49-	=49-	=49-
1F	tol-	.	.	2A/	-lis
!	!	!	!	!LO:TX:t=P:problem:kreska pseudotaktowa	!
.	.	.	.	2A/	pec-
2D/	-lis	.	.	2d\	-ca-
2D/	pec-	.	.	2d\	-ta
=50-	=50-	=50-	=50-	=50-	=50-
2G\	-ca-	1r	.	1B	mun-
2G\	-ta	.	.	.	.
1E	mun-	2r	.	1G	-di
.	.	2G/	Qui	.	.
=51-	=51-	=51-	=51-	=51-	=51-
1C	-di	1c	tol-	1r	.
1F	Mi-	2A/	-lis	2r	.
.	.	2A/	pec-	1A\	Mi-
=52-	=52-	=52-	=52-	=52-	=52-
1D	-ſe-	2d\	-ca-	.	.
!	!	!	!	!LO:TX:t=P:problem:kreska pseudotaktowa	!
.	.	2d\	-ta	2A/	-ſe-
1.E	-re-	1B	mun-	2.G/	-re-
!	!	!	!	!LO:TX:t=P:problem:kreska pseudotaktowa	!
.	.	.	.	4A/	-re
=53-	=53-	=53-	=53-	=53-	=53-
.	.	1G	-di	2B\	no-
2C/	-re	.	.	2.c\	.
1G	no-	1rA	.	.	.
.	.	.	.	8B\L	.
.	.	.	.	8A\J	.
!	!	!	!	!LO:TX:t=P:problem:kreska pseudotaktowa	!
.	.	.	.	2B\	.
=54-	=54-	=54-	=54-	=54-	=54-
1C	-bis	1G	Qui	1c	-bis.
!	!	!	!	!LO:LB:g=original	!
2rD	.	1.c	tol-	00r	.
2C/	Qui	.	.	.	.
=55-	=55-	=55-	=55-	=55-	=55-
!LO:SIC:v:t=custos F	!	!	!	!	!
1F	tol-	.	.	.	.
.	.	2B/	-lis	.	.
!LO:LB:g=original	!	!	!	!	!
2F/	-lis	2A/	pec-	.	.
2E/	pec-	2G/	-ca-	.	.
=56-	=56-	=56-	=56-	=56-	=56-
2D/	-ca-	2A/	-ta	.	.
2C/	-ta	1c	mun-	.	.
1D	mun-	.	.	1rA	.
!	!	!LO:SIC:v:t=custos c	!	!	!
.	.	2B/	.	.	.
!	!	!LO:PB:g=original	!	!	!
=57-	=57-	=57-	=57-	=57-	=57-
1C	-di	1c	-di	1G	Qui
00r	.	00r	.	1c	tol-
=58-	=58-	=58-	=58-	=58-	=58-
.	.	.	.	2c\	-lis
.	.	.	.	2B\	pec-
.	.	.	.	2A/	-ca-
!	!	!	!	!LO:TX:t=P:problem:kreska pseudotaktowa	!
.	.	.	.	2G/	-ta
=59-	=59-	=59-	=59-	=59-	=59-
.	.	.	.	1A	mun-
1rF	.	1rc	.	1G	-di
=60-	=60-	=60-	=60-	=60-	=60-
1.C	Sus-	1.c	Sus-	1.G	Sus-
!	!	!	!	!LO:TX:t=P:problem:kreska pseudotaktowa	!
2C/	-ci-	2c/	-ci-	2G/	-ci-
=61-	=61-	=61-	=61-	=61-	=61-
1F	-pe	1c	-pe	1A	-pe
1D	de-	1d	de-	1A	de-
=62-	=62-	=62-	=62-	=62-	=62-
2A\	-pre-	1c	-pre-	1A	-pre-
1F	-ca-	.	.	.	.
.	.	2d\	-ca-	2.c\	-ca-
2C/	-ti-	2e\	-ti-	.	.
!	!	!	!	!LO:TX:t=P:problem:kreska pseudotaktowa	!
.	.	.	.	4c\	-ti-
=63-	=63-	=63-	=63-	=63-	=63-
2F/	-o-	2f\	-o-	2c\	-o-
2G\	-nem	2d\	-nem	2B\	-nem
!	!	!	!	!LO:SIC:v:t=custos G	!
1D	noſ-	[<1d	no-	1A	no-
!	!	!	!	!LO:LB:g=original	!
=64-	=64-	=64-	=64-	=64-	=64-
!	!	!	!	!LO:TX:t=P:problem:kreska pseudotaktowa	!
0G	-tram	2d]	.	1G	-ſtram
.	.	2G/	-tr(am)	.	.
.	.	1d	Qui	2rG	.
.	.	.	.	2G/	Qui
=65-	=65-	=65-	=65-	=65-	=65-
2r	.	2e\	se-	1c	se-
2D/	Qui	2e\	-des	.	.
!LO:SIC:v:t=custos A	!	!LO:SIC:v:t=custos c	!	!	!
1G	ſe-	1d	ad-	2B\	-des
!	!	!	!	!LO:TX:t=P:problem:kreska pseudotaktowa	!
.	.	.	.	2B\	ad
!LO:LB:g=original	!	!LO:LB:g=original	!	!	!
=66-	=66-	=66-	=66-	=66-	=66-
2A\	-des	4c/	-dex-	2c\	dex-
.	.	4d\	.	.	.
2A\	ad	4e\	.	2A/	-te-
.	.	4c/	.	.	.
1G	dex-	2d\	-te-	1B	-ram
.	.	2e\	-ram	.	.
=67-	=67-	=67-	=67-	=67-	=67-
2F/	-te-	1f	Pa-	2.A/	Pa-
2D/	-ram	.	.	.	.
!	!	!	!	!LO:TX:t=P:problem:kreska pseudotaktowa	!
.	.	.	.	4B\	.
*lig	*	*	*	*	*
1E	Pa-	2.e\	.	4c\	.
.	.	.	.	4B\	.
.	.	.	.	4A/	.
.	.	4d\	.	4G/	.
=68-	=68-	=68-	=68-	=68-	=68-
*col	*	*	*	*	*
2.F\	.	4c/	.	2.A/	.
.	.	4B/	.	.	.
.	.	2.c/	.	.	.
*Xlig	*	*	*	*	*
!	!	!	!	!LO:TX:t=P:problem:kreska pseudotaktowa	!
4E/	.	.	.	4G/	.
*Xcol	*	*	*	*	*
1D	.	.	.	1F	.
.	.	8B/L	.	.	.
.	.	8A/J	.	.	.
.	.	2B/	.	.	.
=69-	=69-	=69-	=69-	=69-	=69-
!	!	!	!	!LO:SIC:v:t=custos c	!
1C	-tris	2.c/	.	1G	-tris
.	.	4B/	.	.	.
!	!	!	!	!LO:PB:g=original	!
2rD	.	1A	.	0r	.
1c\	Mi-	.	.	.	.
=70-	=70-	=70-	=70-	=70-	=70-
.	.	1G	-tris	.	.
2B\	-ſe-	.	.	.	.
2A\	-re-	2r	.	1r	.
2G\	-re	1g\	Mi-	.	.
=71-	=71-	=71-	=71-	=71-	=71-
1A	no-	.	.	2r	.
.	.	2f\	-ſe-	1c	Mi-
1G	-bis	2e\	-re-	.	.
!	!	!LO:SIC:v:t=custos e	!	!LO:TX:t=P:problem:kreska pseudotaktowa	!
.	.	2d\	-re	2B\	-ſe-
!	!	!LO:LB:g=original	!	!	!
=72-	=72-	=72-	=72-	=72-	=72-
0r	.	2.e\	No-	2A/	-re-
.	.	.	.	2G/	-re
.	.	4d\	.	.	.
.	.	4c/	.	1A	no-
.	.	4B/	.	.	.
.	.	2.c/	.	.	.
=73-	=73-	=73-	=73-	=73-	=73-
1r	.	.	.	0G	-bis
.	.	8B/L	.	.	.
.	.	8A/J	.	.	.
.	.	2B/	.	.	.
2.C/	Quo-	1c	-bis	.	.
4C/	-ni-	.	.	.	.
=74-	=74-	=74-	=74-	=74-	=74-
2G\	-am	2.d\	Quo-	1rA	.
!LO:SIC:v:t=custos A	!	!	!	!	!
2G\	tu	.	.	.	.
.	.	4d\	-ni-	.	.
!LO:LB:g=original	!	!	!	!	!
2A\	ſo-	2c/	-am	2rG	.
2A\	-lus	2c/	tu	1c\	Quo-
=75-	=75-	=75-	=75-	=75-	=75-
1G	San-	1d	So-	.	.
!	!	!	!	!LO:TX:t=P:problem:kreska pseudotaktowa	!
.	.	.	.	2B\	-ni-
1C	-ctus	2c/	-lus	2c\	-am
.	.	2.e\	San-	2G/	tu
=76-	=76-	=76-	=76-	=76-	=76-
1rF	.	.	.	2A/	so-
.	.	8d\L	.	.	.
.	.	8c\J	.	.	.
!	!	!	!	!LO:TX:t=P:problem:kreska pseudotaktowa	!
.	.	2d\	.	2B\	-lus
2r	.	2e\	-ctus	1c	Sanc-
2c\	Tu	2c/	tu	.	.
=77-	=77-	=77-	=77-	=77-	=77-
!	!	!	!	!LO:TX:t=P:problem:kreska pseudotaktowa	!
2c\	So-	2d\	so-	1G	-tus
!	!	!LO:SIC:v:t=custos e	!	!	!
2B\	-lus	2d\	-lus	.	.
!	!	!LO:LB:g=original	!	!	!
2.A\	Do-	2e\	Do-	2r	.
.	.	4d\	.	2c\	Tu
4A\	-mi-	4c/	.	.	.
=78-	=78-	=78-	=78-	=78-	=78-
1G	-nus	2d\	-mi-	2c\	So-
!	!	!	!	!LO:SIC:v:t=custos c	!
.	.	2d\	-nus	2B\	-lus
!	!	!	!	!LO:LB:g=original	!
2r	.	1c	.	1c	Do-
2C/	Tu	.	.	.	.
=79-	=79-	=79-	=79-	=79-	=79-
1F	So-	1r	.	1A	-mi-
2F/	-lus	2r	.	1G	-nus
2D/	al-	2d\	Tu	.	.
=80-	=80-	=80-	=80-	=80-	=80-
2.E/	-tiſ-	1B	So-	2rG	.
!	!	!	!	!LO:TX:t=P:problem:kreska pseudotaktowa	!
.	.	.	.	2G/	Tu
4F/	.	.	.	.	.
2.G\	.	4G/	-lus	1B	so-
.	.	4A/	.	.	.
.	.	4B/	.	.	.
!LO:SIC:v:t=custos B	!	!	!	!	!
4A\	.	4c/	.	.	.
!LO:PB:g=original	!	!	!	!	!
=81-	=81-	=81-	=81-	=81-	=81-
2B\	.	2d\	.	2B\	-lus
1c\	-ſi-	2c/	al-	2A/	al-
!	!	!	!	!LO:TX:t=P:problem:kreska pseudotaktowa	!
.	.	2d\	-tiſ-	1G	-tiſ-
2B\	-mus	1e\	.	.	.
=82-	=82-	=82-	=82-	=82-	=82-
1c	.	.	.	2A/	.
.	.	4d\	.	1c	.
.	.	4c/	.	.	.
1G	Je-	2d\	.	.	.
!	!	!	!	!LO:TX:t=P:problem:kreska pseudotaktowa	!
.	.	2d\	-si-	2B\	-si-
=83-	=83-	=83-	=83-	=83-	=83-
1C	-su	2e\	-mus	1c	-mus
.	.	1g	Je-	.	.
1.G	Chri-	.	.	1.B	Je-
!	!	!LO:SIC:v:t=custos e	!	!	!
.	.	2g\	-ſu	.	.
!	!	!LO:LB:g=original	!	!	!
=84-	=84-	=84-	=84-	=84-	=84-
.	.	4e\	Chri-	.	.
.	.	4d\	.	.	.
2F/	.	1d	.	2A/	-ſu
*lig	*	*	*	*lig	*
1E	.	.	.	1G	Chri-
.	.	2c/	.	.	.
=85-	=85-	=85-	=85-	=85-	=85-
1D	.	0d	-ſste	1A	.
*Xlig	*	*	*	*Xlig	*
1G	-ſte	.	.	1G	-ste
=86-	=86-	=86-	=86-	=86-	=86-
!	!	!	!	!LO:SIC:v:t=custos c	!
2rA	.	2r	.	0r	.
2c\	Cum	2e\	Cum	.	.
2c\	San-	2e\	San-	.	.
2B\	-cto	2d\	-cto	.	.
!	!	!	!	!LO:LB:g=original	!
=87-	=87-	=87-	=87-	=87-	=87-
2c\	Spi-	2e\	Spi-	2r	.
2A\	-ri-	2c/	-ri-	2c\	Cum
!LO:SIC:v:t=custos c	!	!	!	!	!
1G	-tu	1d	-tu	2c\	Sanc-
!	!	!	!	!LO:TX:t=P:problem:kreska pseudotaktowa	!
.	.	.	.	2B\	-to
!LO:LB:g=original	!	!	!	!	!
=88-	=88-	=88-	=88-	=88-	=88-
2r	.	0r	.	2c\	Spi-
*	*ij	*	*	*	*
2c\	Cum	.	.	2A/	-ri-
!	!	!	!	!LO:TX:t=P:problem:kreska pseudotaktowa	!
2c\	San-	.	.	1G	-tu
2B\	-cto	.	.	.	.
=89-	=89-	=89-	=89-	=89-	=89-
2c\	Spi-	1r	.	2r	.
*	*	*	*	*	*ij
2A\	-ri-	.	.	2c\	Cum
1G	-tu	1d	in	2c\	Sanc-
*	*Xij	*	*	*	*
.	.	.	.	2B\	-to
=90-	=90-	=90-	=90-	=90-	=90-
1r	.	2c/	glo-	2.A/	Spi-
.	.	2A/	-ri-	.	.
!	!	!	!	!LO:TX:t=P:problem:kreska pseudotaktowa	!
.	.	.	.	4A/	-ri-
2r	.	1B	-a	1G	-tu
*	*	*	*	*	*Xij
2G\	in	.	.	.	.
=91-	=91-	=91-	=91-	=91-	=91-
2F/	glo-	1A	De-	2r	.
2D/	-ri-	.	.	2d\	in
1F	-a	2A/	-i	2c\	glo-
!	!	!	!	!LO:TX:t=P:problem:kreska pseudotaktowa	!
.	.	1d\	Pa-	2A/	-ri-
=92-	=92-	=92-	=92-	=92-	=92-
2E/	De-	.	.	2B\	-a
!	!	!LO:SIC:v:t=custos d	!	!LO:SIC:v:t=custos A	!
2E/	-i	2c/	.	2G/	De-
!	!	!LO:LB:g=original	!	!LO:LB:g=original	!
0D	Pa-	0d	-tris	2A/	-i
.	.	.	.	1A\	Pa-
=93-	=93-	=93-	=93-	=93-	=93-
.	.	.	.	.	.
!	!	!	!	!LO:TX:t=P:problem:kreska pseudotaktowa	!
.	.	.	.	2B\	-tris
1C	-tris	2r	.	2.c\	A-
.	.	2g\	in	.	.
.	.	.	.	4B\	.
=94-	=94-	=94-	=94-	=94-	=94-
2r	.	2g\	glo-	1A	.
2c\	in	2f\	-ri-	.	.
2B\	glo-	1g	-a	1G	-men
!LO:SIC:v:t=custos A	!	!	!	!	!
2G\	-ri-	.	.	.	.
!LO:LB:g=original	!	!	!	!	!
=95-	=95-	=95-	=95-	=95-	=95-
2A\	-a	1.e	De-	0r	.
1c	De-	.	.	.	.
2B\	-i	2d\	-i	.	.
=96-	=96-	=96-	=96-	=96-	=96-
1A	Pa-	1c	Pa-	2r	.
!	!	!	!	!LO:TX:t=P:problem:kreska pseudotaktowa	!
.	.	.	.	2c\	in
2G,\	-tris	2d,\	-tris	2c\	glo-
2G\	in	2g\	in	2B\	-ri-
=97-	=97-	=97-	=97-	=97-	=97-
!	!	!	!	!LO:TX:t=P:problem:kreska pseudotaktowa	!
2C/	glo-	2g\	glo-	1c	-a
2C/	-ri-	2e\	-ri-	.	.
2D/	-a	2d\	-a	1A	De-
2D/	De-	2.d\	De-	.	.
=98-	=98-	=98-	=98-	=98-	=98-
2G\	-i	.	.	2G/	-i
.	.	4e\	-i	.	.
*lig	*	*	*	*	*
1F	Pa-	1f	Pa-	1c	Pa-
1G\	.	2d\	-tris	4B\	.
!	!	!	!	!LO:TX:t=P:problem:kreska pseudotaktowa	!
.	.	.	.	4A/	.
*Xlig	*	*	*	*	*
=99-	=99-	=99-	=99-	=99-	=99-
.	.	2g\	A-	2B\	.
2C/	-tris	2e\	.	2c\	-tris
1D	A-	1d	.	1A	A-
=100-	=100-	=100-	=100-	=100-	=100-
0Gl;;	-men.	0dl;;	-men.	0Gl;;	-men.
==	==	==	==	==	==
*-	*-	*-	*-	*-	*-
!!!system-decoration: [s1,s2,s3]
!!!RDF**kern: < = below
!!!RDF**kern: l = terminal long
!!!ENC: Marta Lawrence
!!!END: 2021-03-23
!!!ENC: Berenika Jozajtis
!!!END: 2021-03-08
